learning-site/svg (97).svg

<svg xmlns="http://www.w3.org/2000/svg" xmlns:xlink="http://www.w3.org/1999/xlink" viewBox="0 0 100 118" version="1.1"><!-- Generator: Sketch 52.4 (67378) - http://www.bohemiancoding.com/sketch --><title>Get Started with Windows Development/get-started-with-windows-development</title><desc>Created with Sketch.</desc><defs><path d="M42.7425,1.49663266 C44.3745,0.498877554 46.1865,0 48,0 C49.8135,0 51.627,0.498877554 53.256,1.49663266 L90.591,24.3316189 C93.933,26.3773408 96,30.2031485 96,34.3529027 L96,79.6470973 C96,83.7952317 93.933,87.6242789 90.591,89.6683811 L53.256,112.504987 C51.627,113.501122 49.8135,114 48,114 C46.1865,114 44.3745,113.501122 42.7425,112.504987 L5.409,89.6683811 C2.0655,87.6242789 0,83.7952317 0,79.6470973 L0,34.3529027 C0,30.2031485 2.0655,26.3773408 5.409,24.3316189 L42.7425,1.49663266 Z" id="path-1"></path><filter x="-6.3%" y="-7.5%" width="112.7%" height="115.1%" filterUnits="objectBoundingBox" id="filter-3"><feOffset dx="0" dy="2" in="SourceAlpha" result="shadowOffsetOuter1"></feOffset><feColorMatrix values="0 0 0 0 0   0 0 0 0 0   0 0 0 0 0  0 0 0 0.0982223732 0" type="matrix" in="shadowOffsetOuter1" result="shadowMatrixOuter1"></feColorMatrix><feMerge><feMergeNode in="shadowMatrixOuter1"></feMergeNode><feMergeNode in="SourceGraphic"></feMergeNode></feMerge></filter><path d="M18.375,14.6984848 C18.375,17.1108598 16.4119375,19.0734848 14,19.0734848 C11.587625,19.0734848 9.625,17.1108598 9.625,14.6984848 C9.625,12.2861098 11.587625,10.3234848 14,10.3234848 C16.4119375,10.3234848 18.375,12.2861098 18.375,14.6984848 Z M24.4260625,11.8897348 C24.259375,11.8529848 23.9999375,11.6167348 23.947875,11.4539848 C23.9413125,11.4316723 23.933,11.4097973 23.9238125,11.3883598 L23.3625,10.0242348 C23.352875,10.0006098 23.3419375,9.97698481 23.330125,9.95423481 C23.251375,9.80329731 23.2666875,9.45548481 23.358125,9.31242231 L24.47725,7.55367231 C24.9519375,6.80773481 24.8338125,5.73367231 24.2090625,5.10848481 L23.59,4.48942231 C22.9796875,3.87867231 21.875,3.75660981 21.1448125,4.22123481 L19.385625,5.33992231 C19.327,5.37798481 19.1883125,5.41867231 19.0238125,5.41867231 C18.8890625,5.41867231 18.788875,5.39154731 18.74425,5.36835981 C18.7219375,5.35610981 18.697875,5.34560981 18.6738125,5.33598481 L17.310125,4.77423481 C17.2886875,4.76548481 17.2668125,4.75717231 17.2445,4.75060981 C17.0821875,4.69854731 16.8455,4.43910981 16.80875,4.27198481 L16.3568125,2.23804731 C16.16475,1.37485981 15.3216875,0.69848481 14.4375,0.69848481 L13.5625,0.69848481 C12.677875,0.69848481 11.83525,1.37485981 11.643625,2.23760981 L11.19125,4.27285981 C11.1540625,4.43910981 10.9178125,4.69854731 10.7555,4.75060981 C10.7331875,4.75717231 10.7113125,4.76548481 10.6894375,4.77423481 L9.32575,5.33598481 C9.3016875,5.34560981 9.2780625,5.35610981 9.2553125,5.36835981 C9.211125,5.39154731 9.1109375,5.41867231 8.97575,5.41867231 C8.81125,5.41867231 8.6725625,5.37754731 8.6135,5.33992231 L6.8551875,4.22167231 C6.125,3.75704731 5.019875,3.87954731 4.41,4.48985981 L3.7909375,5.10848481 C3.16575,5.73410981 3.0480625,6.80817231 3.52275,7.55410981 L4.641875,9.31242231 C4.732875,9.45592231 4.7481875,9.80285981 4.669875,9.95379731 C4.6580625,9.97698481 4.6466875,10.0006098 4.6370625,10.0242348 L4.07575,11.3883598 C4.067,11.4097973 4.0586875,11.4316723 4.0516875,11.4539848 C3.999625,11.6167348 3.740625,11.8529848 3.5735,11.8901723 L1.5395625,12.3416723 C0.676375,12.5337348 -1.13686838e-13,13.3763598 -1.13686838e-13,14.2609848 L-1.13686838e-13,15.1359848 C-1.13686838e-13,16.0201723 0.676375,16.8632348 1.539125,17.0548598 L3.5739375,17.5067973 C3.740625,17.5439848 3.999625,17.7802348 4.0516875,17.9429848 C4.0586875,17.9652973 4.067,17.9871723 4.07575,18.0086098 L4.6370625,19.3727348 C4.6466875,19.3963598 4.657625,19.4195473 4.669875,19.4427348 C4.7481875,19.5932348 4.732875,19.9410473 4.6414375,20.0845473 L3.52275,21.8428598 C3.047625,22.5887973 3.16575,23.6632973 3.7909375,24.2884848 L4.41,24.9075473 C5.0194375,25.5165473 6.12325,25.6407973 6.855625,25.1757348 L8.6130625,24.0570473 C8.6725625,24.0189848 8.81125,23.9782973 8.97575,23.9782973 C9.1109375,23.9782973 9.211125,24.0049848 9.2553125,24.0286098 C9.2785,24.0399848 9.3016875,24.0513598 9.32575,24.0609848 L10.6894375,24.6227348 C10.7113125,24.6314848 10.7331875,24.6393598 10.7555,24.6463598 C10.9178125,24.6984223 11.1540625,24.9578598 11.19125,25.1245473 L11.643625,27.1589223 C11.83525,28.0221098 12.677875,28.6984848 13.5625,28.6984848 L14.4375,28.6984848 C15.3216875,28.6984848 16.1643125,28.0221098 16.356375,27.1589223 L16.80875,25.1245473 C16.8455,24.9578598 17.0821875,24.6984223 17.2445,24.6463598 C17.2668125,24.6393598 17.2886875,24.6314848 17.310125,24.6227348 L18.6738125,24.0609848 C18.697875,24.0513598 18.7215,24.0399848 18.74425,24.0286098 C18.788875,24.0049848 18.8890625,23.9782973 19.023375,23.9782973 C19.187875,23.9782973 19.327,24.0189848 19.385625,24.0570473 L21.144375,25.1752973 C21.874125,25.6407973 22.9796875,25.5174223 23.59,24.9075473 L24.208625,24.2889223 C24.8338125,23.6637348 24.9519375,22.5892348 24.47725,21.8428598 L23.358125,20.0845473 C23.2666875,19.9410473 23.251375,19.5936723 23.330125,19.4431723 C23.3419375,19.4199848 23.352875,19.3967973 23.3625,19.3731723 L23.9238125,18.0086098 C23.933,17.9871723 23.9413125,17.9652973 23.947875,17.9429848 C23.9999375,17.7802348 24.259375,17.5439848 24.4265,17.5067973 L26.46,17.0548598 C27.323625,16.8632348 28,16.0201723 28,15.1359848 L28,14.2609848 C28,13.3763598 27.323625,12.5337348 26.4604375,12.3421098 L24.4260625,11.8897348 Z" id="path-4"></path><filter x="-3.6%" y="-3.6%" width="107.1%" height="114.3%" filterUnits="objectBoundingBox" id="filter-5"><feOffset dx="0" dy="2" in="SourceAlpha" result="shadowOffsetOuter1"></feOffset><feColorMatrix values="0 0 0 0 0   0 0 0 0 0   0 0 0 0 0  0 0 0 0.1 0" type="matrix" in="shadowOffsetOuter1"></feColorMatrix></filter><path d="M0.415833333,10.5 C2.71833333,10.5 4.58333333,8.262 4.58333333,5.5 C4.58333333,2.738 2.71833333,0.5 0.415833333,0.5 L0.415833333,10.5 Z" id="path-6"></path></defs><g id="Badges" stroke="none" stroke-width="1" fill="none" fill-rule="evenodd"><g id="Get-Started-with-Windows-Development" transform="translate(-579.000000, -118.000000)"><g id="Get-Started-with-Windows-Development/get-started-with-windows-development" transform="translate(579.000000, 118.000000)"><g id="Mask" transform="translate(2.000000, 2.000000)"><mask id="mask-2" fill="white"><use xlink:href="#path-1"></use></mask><use id="Trophy-1" fill="#55A2FF" xlink:href="#path-1"></use><g id="Group-10" mask="url(#mask-2)"><g transform="translate(14.000000, 28.918076)"><g id="Browser" filter="url(#filter-3)" stroke-width="1" fill="none" fill-rule="evenodd"><path d="M3.91684814,52.7778689 C1.76258166,52.7778689 0,51.0186066 0,48.8683972 L0,3.90947177 C0,1.7592623 1.76258166,0 3.91684814,0 L58.752722,0 C60.9069885,0 62.6695702,1.7592623 62.6695702,3.90947177 L62.6695702,48.8683972 C62.6695702,51.0186066 60.9069885,52.7778689 58.752722,52.7778689 L3.91684814,52.7778689" id="Fill-1485" fill="#30404D"></path><path d="M4.89606017,49.8457651 C3.81892693,49.8457651 2.9376361,48.966134 2.9376361,47.8910292 L2.9376361,10.7510474 C2.9376361,9.67594264 3.81892693,8.79631149 4.89606017,8.79631149 L57.77351,8.79631149 C58.8506432,8.79631149 59.7319341,9.67594264 59.7319341,10.7510474 L59.7319341,47.8910292 C59.7319341,48.966134 58.8506432,49.8457651 57.77351,49.8457651 L4.89606017,49.8457651" id="Fill-1486" fill="#E1E4E1"></path><path d="M3.91684814,4.39815575 C3.91684814,3.58791772 4.57487862,2.93210383 5.38566619,2.93210383 C6.19743296,2.93210383 6.85448424,3.58791772 6.85448424,4.39815575 C6.85448424,5.2074164 6.19743296,5.86420766 5.38566619,5.86420766 C4.57487862,5.86420766 3.91684814,5.2074164 3.91684814,4.39815575" id="Fill-1487" fill="#DF5142"></path><path d="M9.79212034,4.39815575 C9.79212034,3.58791772 10.4501508,2.93210383 11.2609384,2.93210383 C12.0727052,2.93210383 12.7297564,3.58791772 12.7297564,4.39815575 C12.7297564,5.2074164 12.0727052,5.86420766 11.2609384,5.86420766 C10.4501508,5.86420766 9.79212034,5.2074164 9.79212034,4.39815575" id="Fill-1488" fill="#EFB252"></path><path d="M15.6673925,4.39815575 C15.6673925,3.58791772 16.325423,2.93210383 17.1362106,2.93210383 C17.9479774,2.93210383 18.6050286,3.58791772 18.6050286,4.39815575 C18.6050286,5.2074164 17.9479774,5.86420766 17.1362106,5.86420766 C16.325423,5.86420766 15.6673925,5.2074164 15.6673925,4.39815575" id="Fill-1489" fill="#7CB65A"></path><path d="M58.263116,5.86420766 L24.9699069,5.86420766 C24.1591193,5.86420766 23.5010888,5.2074164 23.5010888,4.39815575 C23.5010888,3.58889509 24.1591193,2.93210383 24.9699069,2.93210383 L58.263116,2.93210383 C59.0739036,2.93210383 59.7319341,3.58889509 59.7319341,4.39815575 C59.7319341,5.2074164 59.0739036,5.86420766 58.263116,5.86420766" id="Fill-1490" fill="#697D85"></path></g><path d="M11,16 L19,16 L19,20 L11,20 C9.8954305,20 9,19.1045695 9,18 L9,18 C9,16.8954305 9.8954305,16 11,16 Z" id="Rectangle" fill="#EFB252" fill-rule="nonzero" opacity="0.800000012"></path><rect id="Rectangle" fill="#7CB65A" fill-rule="nonzero" opacity="0.800000012" x="19" y="16" width="9" height="4"></rect><path d="M28,16 L52,16 C53.1045695,16 54,16.8954305 54,18 L54,18 C54,19.1045695 53.1045695,20 52,20 L28,20 L28,16 Z" id="Rectangle" fill="#0082BA" fill-rule="nonzero" opacity="0.800000012"></path><path d="M11,38 L19,38 L19,42 L11,42 C9.8954305,42 9,41.1045695 9,40 L9,40 C9,38.8954305 9.8954305,38 11,38 Z" id="Rectangle" fill="#DF5142" fill-rule="nonzero" opacity="0.800000012"></path><rect id="Rectangle" fill="#7CB65A" fill-rule="nonzero" opacity="0.800000012" x="19" y="38" width="9" height="4"></rect><path d="M28,38 L48,38 C49.1045695,38 50,38.8954305 50,40 L50,40 C50,41.1045695 49.1045695,42 48,42 L28,42 L28,38 Z" id="Rectangle" fill="#0082BA" fill-rule="nonzero" opacity="0.800000012"></path><path d="M21,23 L28,23 L28,27 L21,27 C19.8954305,27 19,26.1045695 19,25 L19,25 C19,23.8954305 19.8954305,23 21,23 Z" id="Rectangle" fill="#7CB65A" fill-rule="nonzero" opacity="0.800000012"></path><path d="M28,23 L48,23 C49.1045695,23 50,23.8954305 50,25 L50,25 C50,26.1045695 49.1045695,27 48,27 L28,27 L28,23 Z" id="Rectangle" fill="#EFB252" fill-rule="nonzero" opacity="0.800000012"></path><rect id="Rectangle" fill="#0082BA" fill-rule="nonzero" opacity="0.800000012" x="13" y="30" width="41" height="4"></rect></g></g><g id="Group-14" mask="url(#mask-2)"><g transform="translate(50.000000, 52.918076)"><g id="Group-10" stroke-width="1" fill="none" fill-rule="evenodd" transform="translate(20.506097, 20.506097) rotate(-45.000000) translate(-20.506097, -20.506097) translate(6.006097, 6.006097)"><path d="M17.125,14.6984848 C17.125,12.9766361 15.7217519,11.5734848 14,11.5734848 C12.2779809,11.5734848 10.875,12.9764657 10.875,14.6984848 C10.875,16.4205039 12.2779809,17.8234848 14,17.8234848 C15.7217519,17.8234848 17.125,16.4203336 17.125,14.6984848 Z M26.7315817,11.1218718 C28.1668008,11.4406113 29.25,12.7905766 29.25,14.2609848 L29.25,15.1359848 C29.25,16.606306 28.1663982,17.9566373 26.7311909,18.2750875 L25.0083134,18.6579903 L24.5857248,19.6852979 L25.532005,21.1720455 C26.3209845,22.4125975 26.1319504,24.1333639 25.0925085,25.1728058 L24.4735665,25.7917476 C23.448083,26.816496 21.6955106,27.0095229 20.4736882,26.2301334 L18.9861068,25.2842418 L17.9597582,25.707025 L17.576536,27.4304128 C17.2572574,28.8653482 15.9074532,29.9484848 14.4375,29.9484848 L13.5625,29.9484848 C12.0920087,29.9484848 10.7419741,28.8651633 10.4234282,27.4302521 L10.0402855,25.7072202 L9.01322469,25.2840845 L7.52569935,26.2309601 C6.30053742,27.0089452 4.55092344,26.8155021 3.52611652,25.7914308 L2.90705402,25.1723683 C1.86740459,24.1327189 1.67851306,22.411517 2.46810831,21.1718673 L3.41395685,19.6852173 L2.99121066,18.657832 L1.26809297,18.2751227 C-0.166740484,17.9564326 -1.25,16.6059947 -1.25,15.1359848 L-1.25,14.2609848 C-1.25,12.7907011 -0.166967719,11.4408131 1.26867736,11.1213768 L2.99126738,10.7389908 L3.41410599,9.71140594 L2.46817314,8.22520418 C1.67899408,6.98506566 1.86759372,5.26478893 2.90736652,4.22428895 L3.52579966,3.60629331 C4.55038039,2.58097759 6.30220125,2.38820173 7.52599315,3.16691178 L9.01329176,4.11280296 L10.0403467,3.68977653 L10.4233621,1.96657778 C10.7420765,0.531635184 12.0921644,-0.55151519 13.5625,-0.55151519 L14.4375,-0.55151519 C15.907458,-0.55151519 17.257696,0.531626341 17.5770525,1.96691203 L17.9599204,3.69001445 L18.9859704,4.11273375 L20.473759,3.16663193 C21.6979308,2.38768021 23.4492927,2.58021347 24.4738835,3.60553883 L25.0932553,4.22491076 C26.1320812,5.26446417 26.3209205,6.98476233 25.5318485,8.22473273 L24.5856043,9.71178951 L25.0080133,10.7386095 L26.7315817,11.1218718 Z M26.7315817,11.1218718 L26.7317673,11.121913 L26.7313386,11.1218178 C26.7314197,11.1218358 26.7315007,11.1218538 26.7315817,11.1218718 Z" id="Fill-376" stroke="#55A2FF" stroke-width="2.5"></path><g id="Fill-376"><use fill="black" fill-opacity="1" filter="url(#filter-5)" xlink:href="#path-4"></use><use fill="#546670" fill-rule="evenodd" xlink:href="#path-4"></use></g><path d="M8.65270592,24.1588987 C8.71245659,24.1206765 8.85172838,24.0798183 9.01692142,24.0798183 C9.15267846,24.0798183 9.25328805,24.1066178 9.29766171,24.1303419 C9.3209469,24.1417646 9.34423209,24.1531873 9.36839597,24.1628527 L10.7378287,24.726959 C10.7597958,24.7357457 10.781763,24.7436537 10.8041695,24.7506831 C10.9671658,24.802964 11.2044111,25.0634897 11.2417553,25.2308764 L11.6960361,27.2737848 C11.8884685,28.140593 12.7346434,28.8198052 13.6229953,28.8198052 L14.5016817,28.8198052 C15.3895943,28.8198052 16.2357692,28.140593 16.4286409,27.2737848 L16.8829217,25.2308764 C16.9198266,25.0634897 17.1575112,24.802964 17.3205076,24.7506831 C17.3429141,24.7436537 17.3648812,24.7357457 17.386409,24.726959 L18.7558417,24.1628527 C18.7800056,24.1531873 18.8037301,24.1417646 18.826576,24.1303419 C18.871389,24.1066178 18.9719986,24.0798183 19.1068769,24.0798183 C19.27207,24.0798183 19.4117811,24.1206765 19.4706531,24.1588987 L21.2368127,25.2818393 C21.9696371,25.7492919 23.0798573,25.6253994 23.6927411,25.0129662 L24.3139723,24.3917463 C24.9417937,23.7639364 25.0604164,22.6849293 24.583729,21.9354235 L23.4598892,20.1697356 C23.3680665,20.0256337 23.3526894,19.6768016 23.4317712,19.5256703 C23.4436335,19.5023855 23.4546171,19.4791008 23.4642826,19.4553767 L24.0279599,18.0850904 C24.0371861,18.0635629 24.0455336,18.0415962 24.0521238,18.0191901 C24.1044056,17.8557574 24.3649361,17.6185164 24.5327652,17.581173 L26.5748323,17.1273398 C27.4420958,16.934911 28.1213203,16.0883121 28.1213203,15.2004158 L28.1213203,14.3217456 C28.1213203,13.4334099 27.4420958,12.5872504 26.5752717,12.3948216 L24.5323259,11.9405491 C24.3649361,11.9036449 24.1044056,11.666404 24.0521238,11.5029713 C24.0455336,11.4805652 24.0371861,11.4585984 24.0279599,11.437071 L23.4642826,10.0672241 C23.4546171,10.0435 23.4436335,10.0197759 23.4317712,9.99693044 C23.3526894,9.84535981 23.3680665,9.49608838 23.4598892,9.35242579 L24.583729,7.58629853 C25.0604164,6.83723211 24.8938334,5.80662471 24.2664513,5.17881479 L23.685951,4.59832021 L16.9748737,11.3093975 C17.7705242,12.1050335 18.4557703,13.5498337 18.4557703,14.7610807 C18.4557703,17.1835746 16.4844375,19.1544321 14.0623385,19.1544321 C12.8510694,19.1544321 11.5345179,18.3406004 10.7388674,17.5454038 L3.85162053,24.4326507 L4.43193597,25.0129662 C5.04394103,25.6245207 6.15240387,25.7492919 6.88786436,25.2822786 L8.65270592,24.1588987 Z" id="Fill-377" fill="#30404D"></path></g><circle id="Oval" fill="#55A2FF" fill-rule="nonzero" cx="20" cy="21" r="5"></circle><g id="Group-11" stroke-width="1" fill="none" fill-rule="evenodd" transform="translate(15.000000, 16.000000)"><path d="M5,10 C7.762,10 10,7.762 10,5 C10,2.238 7.762,0 5,0 C2.239,0 0,2.238 0,5 C0,7.762 2.239,10 5,10 Z" id="Stroke-4" stroke="#30404D"></path><g id="Group-8" transform="translate(5.000000, 0.000000)"><mask id="mask-7" fill="white"><use xlink:href="#path-6"></use></mask><g id="Clip-7"></g><polygon id="Stroke-6" stroke="#C4C4C4" mask="url(#mask-7)" points="-7.91666667 15.5 8.75 15.5 8.75 -4.5 -7.91666667 -4.5"></polygon></g><path d="M5,10 C7.762,10 10,7.762 10,5 C10,2.238 7.762,0 5,0" id="Stroke-9" stroke="#546670"></path></g></g></g></g><g id="Azure-Hex-Border" stroke="#0078D4" stroke-width="4"><path d="M45.5620146,3.25834407 L6.67338401,26.8942953 C3.79673288,28.6432593 2,31.9508238 2,35.5582677 L2,82.4417323 C2,86.0486597 3.79764663,89.3586805 6.67318764,91.1055853 L45.560618,114.742485 C46.9289662,115.572418 48.4546283,116 50,116 C51.5458817,116 53.0723633,115.572188 54.4362178,114.743457 L93.3268764,91.1055464 C96.2016145,89.3583456 98,86.0476286 98,82.4417323 L98,35.5582677 C98,31.9518547 96.202529,28.6435953 93.3268966,26.8944659 L54.4351916,3.25759524 C53.0721095,2.42798656 51.5462432,2 50,2 C48.4543284,2 46.9293388,2.42772325 45.5620146,3.25834407 Z M45.5620146,3.25834407 C45.5619597,3.25837737 45.5619049,3.25841067 45.5618501,3.25844398 L45.5621963,3.25823359 L45.5620146,3.25834407 Z"></path></g></g></g></g></svg>

<svg xmlns="http://www.w3.org/2000/svg" xmlns:xlink="http://www.w3.org/1999/xlink" viewBox="0 0 100 118"><defs><path d="M42.742 1.497A10.056 10.056 0 0 1 48 0c1.813 0 3.627.499 5.256 1.497l37.335 22.835C93.933 26.377 96 30.203 96 34.352v45.295c0 4.148-2.067 7.977-5.409 10.021l-37.335 22.837A10.056 10.056 0 0 1 48 114c-1.813 0-3.626-.499-5.258-1.495L5.41 89.668C2.066 87.624 0 83.795 0 79.648V34.352c0-4.15 2.066-7.976 5.409-10.021L42.743 1.497z" id="a"/><filter x="-6.3%" y="-7.5%" width="112.7%" height="115.1%" filterUnits="objectBoundingBox" id="c"><feOffset dy="2" in="SourceAlpha" result="shadowOffsetOuter1"/><feColorMatrix values="0 0 0 0 0 0 0 0 0 0 0 0 0 0 0 0 0 0 0.0982223732 0" in="shadowOffsetOuter1" result="shadowMatrixOuter1"/><feMerge><feMergeNode in="shadowMatrixOuter1"/><feMergeNode in="SourceGraphic"/></feMerge></filter><path d="M18.375 14.698A4.38 4.38 0 0 1 14 19.073a4.38 4.38 0 0 1-4.375-4.375A4.38 4.38 0 0 1 14 10.323a4.38 4.38 0 0 1 4.375 4.375zm6.051-2.808c-.167-.037-.426-.273-.478-.436a.59.59 0 0 0-.024-.066l-.561-1.364a.843.843 0 0 0-.033-.07c-.079-.15-.063-.499.028-.642l1.12-1.758c.474-.746.356-1.82-.269-2.446l-.619-.619c-.61-.61-1.715-.732-2.445-.268l-1.76 1.119a.749.749 0 0 1-.361.079.667.667 0 0 1-.35-.083l-1.364-.562a.69.69 0 0 0-.066-.023c-.162-.052-.398-.312-.435-.479l-.452-2.034c-.192-.863-1.035-1.54-1.92-1.54h-.874c-.885 0-1.728.677-1.92 1.54l-.452 2.035c-.037.166-.273.426-.436.478a.744.744 0 0 0-.066.023l-1.363.562a.664.664 0 0 1-.35.083.758.758 0 0 1-.363-.08L6.856 4.223c-.73-.465-1.835-.342-2.445.268l-.62.618c-.624.626-.742 1.7-.267 2.446l1.119 1.758c.09.144.106.49.028.642a.929.929 0 0 0-.033.07l-.561 1.364a.838.838 0 0 0-.024.066c-.052.163-.311.399-.478.436l-2.034.452C.676 12.534 0 13.376 0 14.26v.875c0 .884.676 1.727 1.54 1.919l2.034.452c.167.037.426.273.478.436a.838.838 0 0 0 .024.066l.561 1.364c.01.023.02.047.033.07.078.15.063.498-.029.642l-1.118 1.758c-.475.746-.357 1.82.268 2.445l.619.62c.61.609 1.713.733 2.446.268l1.757-1.119a.756.756 0 0 1 .363-.079c.135 0 .235.027.28.05.022.012.046.023.07.033l1.363.562a.914.914 0 0 0 .066.023c.163.052.4.312.436.479l.453 2.034c.191.863 1.034 1.54 1.918 1.54h.876c.884 0 1.726-.677 1.918-1.54l.453-2.034c.037-.167.273-.427.435-.479a.835.835 0 0 0 .066-.023l1.364-.562a.659.659 0 0 1 .35-.083c.164 0 .303.041.362.079l1.758 1.118c.73.466 1.836.342 2.446-.267l.619-.62c.625-.624.743-1.699.268-2.445l-1.119-1.758c-.091-.144-.107-.491-.028-.642a.914.914 0 0 0 .033-.07l.56-1.364a.59.59 0 0 0 .025-.066c.052-.163.311-.399.479-.436l2.033-.452c.864-.192 1.54-1.035 1.54-1.919v-.875c0-.885-.676-1.727-1.54-1.919l-2.034-.452z" id="e"/><filter x="-3.6%" y="-3.6%" width="107.1%" height="114.3%" filterUnits="objectBoundingBox" id="d"><feOffset dy="2" in="SourceAlpha" result="shadowOffsetOuter1"/><feColorMatrix values="0 0 0 0 0 0 0 0 0 0 0 0 0 0 0 0 0 0 0.1 0" in="shadowOffsetOuter1"/></filter><path d="M.416 10.5c2.302 0 4.167-2.238 4.167-5S2.718.5.416.5v10z" id="f"/></defs><g fill="none" fill-rule="evenodd"><g transform="translate(2 2)"><mask id="b" fill="#fff"><use xlink:href="#a"/></mask><use fill="#55A2FF" xlink:href="#a"/><g mask="url(#b)"><g filter="url(#c)" transform="translate(14 28.918)"><path d="M3.917 52.778c-2.154 0-3.917-1.76-3.917-3.91V3.91C0 1.76 1.763 0 3.917 0h54.836c2.154 0 3.917 1.76 3.917 3.91v44.958c0 2.15-1.763 3.91-3.917 3.91H3.917" fill="#30404D"/><path d="M4.896 49.846a1.962 1.962 0 0 1-1.958-1.955v-37.14c0-1.075.88-1.955 1.958-1.955h52.878c1.077 0 1.958.88 1.958 1.955v37.14a1.962 1.962 0 0 1-1.958 1.955H4.896" fill="#E1E4E1"/><path d="M3.917 4.398c0-.81.658-1.466 1.469-1.466a1.467 1.467 0 1 1 0 2.932c-.811 0-1.47-.657-1.47-1.466" fill="#DF5142"/><path d="M9.792 4.398c0-.81.658-1.466 1.469-1.466a1.467 1.467 0 1 1 0 2.932c-.81 0-1.469-.657-1.469-1.466" fill="#EFB252"/><path d="M15.667 4.398c0-.81.658-1.466 1.47-1.466a1.467 1.467 0 1 1 0 2.932c-.812 0-1.47-.657-1.47-1.466" fill="#7CB65A"/><path d="M58.263 5.864H24.97c-.81 0-1.469-.657-1.469-1.466 0-.81.658-1.466 1.469-1.466h33.293c.81 0 1.469.657 1.469 1.466 0 .81-.658 1.466-1.469 1.466" fill="#697D85"/></g><path d="M25 44.918h8v4h-8a2 2 0 1 1 0-4z" fill="#EFB252" fill-rule="nonzero" opacity=".8"/><path fill="#7CB65A" fill-rule="nonzero" opacity=".8" d="M33 44.918h9v4h-9z"/><path d="M42 44.918h24a2 2 0 1 1 0 4H42v-4z" fill="#0082BA" fill-rule="nonzero" opacity=".8"/><path d="M25 66.918h8v4h-8a2 2 0 1 1 0-4z" fill="#DF5142" fill-rule="nonzero" opacity=".8"/><path fill="#7CB65A" fill-rule="nonzero" opacity=".8" d="M33 66.918h9v4h-9z"/><path d="M42 66.918h20a2 2 0 1 1 0 4H42v-4z" fill="#0082BA" fill-rule="nonzero" opacity=".8"/><path d="M35 51.918h7v4h-7a2 2 0 1 1 0-4z" fill="#7CB65A" fill-rule="nonzero" opacity=".8"/><path d="M42 51.918h20a2 2 0 1 1 0 4H42v-4z" fill="#EFB252" fill-rule="nonzero" opacity=".8"/><path fill="#0082BA" fill-rule="nonzero" opacity=".8" d="M27 58.918h41v4H27z"/></g><g mask="url(#b)"><g transform="translate(50 52.918)"><path d="M22.503 18.79a3.13 3.13 0 0 0-4.42 0 3.13 3.13 0 0 0 0 4.42 3.13 3.13 0 0 0 4.42 0 3.13 3.13 0 0 0 0-4.42zm4.263-9.322c1.24-.79 2.961-.6 4 .44l.62.618c1.04 1.04 1.228 2.76.438 4l-.947 1.49.427 1.025 1.72.382c1.436.32 2.519 1.67 2.519 3.14v.875c0 1.45-1.103 2.826-2.518 3.139l-1.721.383-.427 1.024.948 1.49c.789 1.24.6 2.96-.44 4l-.618.619c-1.04 1.04-2.76 1.228-4 .439l-1.49-.948-1.025.427-.382 1.722c-.317 1.416-1.69 2.517-3.14 2.517h-.875c-1.47 0-2.82-1.083-3.139-2.518l-.382-1.72-1.026-.428-1.489.948c-1.24.79-2.96.6-4-.44l-.619-.618c-1.04-1.04-1.228-2.76-.439-4.001l.948-1.488-.428-1.026-1.72-.382c-1.435-.319-2.518-1.669-2.518-3.14v-.874c0-1.45 1.102-2.825 2.518-3.14l1.72-.382.428-1.025-.948-1.49c-.79-1.24-.6-2.96.44-4l.618-.619c1.04-1.04 2.76-1.228 4-.439l1.49.948 1.024-.427.383-1.72c.315-1.417 1.69-2.52 3.14-2.52h.875c1.47.001 2.82 1.084 3.139 2.52l.382 1.72 1.025.427 1.49-.948zm0 0h0s0 0 0 0z" stroke="#55A2FF" stroke-width="2.5"/><g transform="rotate(-45 24.753 10.253)"><use fill="#000" filter="url(#d)" xlink:href="#e"/><use fill="#546670" xlink:href="#e"/></g><path d="M23.201 31.47a.759.759 0 0 1 .202-.313.66.66 0 0 1 .234-.163c.025-.008.05-.016.073-.027l1.367-.57a.918.918 0 0 0 .064-.03c.152-.078.504-.061.649.03l1.766 1.124c.749.477 1.827.359 2.456-.27l.62-.62c.629-.628.747-1.707.27-2.456l-1.123-1.766c-.092-.144-.108-.497-.03-.649l.03-.063.57-1.368a.662.662 0 0 1 .19-.307.754.754 0 0 1 .312-.2l2.043-.456c.848-.187 1.546-1.06 1.546-1.926v-.879c0-.888-.679-1.735-1.546-1.928l-2.043-.453c-.167-.037-.425-.273-.476-.436a.918.918 0 0 0-.026-.073l-.57-1.367a.592.592 0 0 0-.03-.064c-.079-.152-.062-.504.03-.65l1.123-1.764c.477-.75.359-1.829-.269-2.456l-.621-.622c-.628-.628-1.707-.746-2.456-.269l-1.766 1.123c-.144.093-.496.11-.649.03a.592.592 0 0 0-.063-.029l-1.368-.57a.847.847 0 0 0-.072-.027c-.163-.051-.4-.309-.436-.475l-.454-2.044c-.193-.867-1.04-1.478-1.927-1.478H20V16.5c1.125 0 2.631.537 3.488 1.394a4.399 4.399 0 0 1 0 6.213c-.857.856-2.363 1.212-3.488 1.212v9.74h.82c.866 0 1.738-.696 1.928-1.546l.453-2.042z" fill="#30404D"/><circle fill="#55A2FF" fill-rule="nonzero" cx="20" cy="21" r="5"/><g><path d="M20 26a5 5 0 0 0 5-5 5 5 0 1 0-10 0 5 5 0 0 0 5 5z" stroke="#30404D"/><g transform="translate(20 16)"><mask id="g" fill="#fff"><use xlink:href="#f"/></mask><path stroke="#C4C4C4" mask="url(#g)" d="M-7.917 15.5H8.75v-20H-7.917z"/></g><path d="M20 26a5 5 0 0 0 5-5 5 5 0 0 0-5-5" stroke="#546670"/></g></g></g></g><path d="M45.562 3.258L6.673 26.894C3.797 28.644 2 31.951 2 35.558v46.884c0 3.607 1.798 6.917 4.673 8.664l38.888 23.636A8.539 8.539 0 0 0 50 116a8.525 8.525 0 0 0 4.436-1.257l38.89-23.637C96.203 89.358 98 86.048 98 82.442V35.558c0-3.606-1.797-6.914-4.673-8.664L54.435 3.258A8.511 8.511 0 0 0 50 2c-1.546 0-3.07.428-4.438 1.258zm0 0s0 0 0 0h0z" stroke="#0078D4" stroke-width="4"/></g></svg>
